!!!!SEGMENT: pl-wtm--r-2519--003_hertz-michal--kanon.krn
!!!cenid: 18xx:3087
!!!COM: Hertz, Michał
!!!COM-rismid: pe41023359
!!!CDT: 1844/09/28-~1918
!!!CNT: Polish
!!!OTL: Kanon
!!!PDT:
!!!AGN:
!!!SMS-siglum: PL-Wtm
!!!SMS-shelfmark: R 2519
!!!SMS-shelfwork: 003 G
!!!SMS-variant:
!!!SMS-altvar:
!!!NIFC-rismid: 1001082119
!!!URL-scan: http://repozytorium.nifc.pl/skany/pl-wtm-nut--r2519
!!!ONB-nifc: UWAGA: 9 Kanonów num. 001-009. Skan 0007-0008 (Canon in 8va)
**kern	**kern
*part2	*part1
*staff2	*staff1
*I"Fortepian	*I"Fortepian
*>[A,B,B1,B,B2,C,D,D1,D,D2,E]	*>[A,B,B1,B,B2,C,D,D1,D,D2,E]
*>A	*>A
*clefF4	*clefG2
*k[f#c#g#]	*k[f#c#g#]
*M6/8	*M6/8
=1	=1
8.c#\L	2.r
16d\K	.
8c#\J	.
8f#\L	.
8e\	.
8d\J	.
=2!|:	=2!|:
*>B	*>B
16c#\LL	8.cc#\L
16B\	.
16c#\	.
16B\	16dd\K
16A\	8cc#\J
16G#\JJ	.
4F#\	8ff#\L
.	8ee\
8G#\	8dd\J
=3	=3
8.A\L	16cc#\LL
.	16dd\
.	16cc#\
16G#\K	16b\
8A\J	16a\
.	16g#\JJ
8B\L	4f#/
8c#\	.
8B\J	8g#/
=4	=4
16F#\LL	8.a/L
16G#\	.
16F#\	.
16E\	16g#/K
16D#X\	8a/J
16C#\JJ	.
4BB/	8b/L
.	8cc#/
8D#X/	8b/J
=5	=5
4D#X\	16f#/LL
.	16g#/
.	16f#/
.	16e/
8F#\	16d#X/
.	16c#/JJ
16G#\LL	4B/
16F#\	.
16G#\	.
16A\	.
16G#\	8d#/
16F#\JJ	.
=6	=6
16B\LL	4d#X/
16c#\	.
16B\	.
16c#\	.
16d\	8f#/
16c#\JJ	.
8B\L	16g#/LL
.	16f#/
8e\	16g#/
.	16a/
8c#\J	16g#/
.	16f#/JJ
=7	=7
4d#X\	16b\LL
.	16cc#\
.	16b\
.	16cc#\
8B\	16dd\
.	16cc#\JJ
16G#\LL	8b\L
16F#\	.
16E\	8ee\
16F#\	.
16A\	8cc#\J
16E\JJ	.
!!LO:LB:g=original
=8	=8
16G#\LL	4dd#X\
16A\	.
16G#\	.
16F#\	.
16E\	8b\
16F#\JJ	.
4B\	16g#/LL
.	16f#/
.	16e/
.	16f#/
8c#\	16a/
.	16e/JJ
=9	=9
!!LO:TX:a:t=I
*>B1	*>B1
8.c#\L	16g#/LL
.	16a/
.	16g#/
16dn\K	16f#/
8c#\J	16e/
.	16f#/JJ
8f#\L	8b\
8e\	4cc#\
8d\J	.
=10:|!	=10:|!
!!LO:TX:a:t=II
*>B2	*>B2
4e\	16g#/LL
.	16a/
.	16g#/
.	16f#/
8c#\	16e/
.	16f#/JJ
4B\	8b\
.	4cc#\
8A\	.
=11	=11
*>C	*>C
16G#\LL	4ee\
16A\	.
16G#\	.
16F#\	.
16E\	8cc#\
16F#\JJ	.
16G#\LL	4b\
16A\J	.
8G#\	.
8c#\J	8a/
=12	=12
4B\	16g#/LL
.	16a/
.	16g#/
.	16f#/
8G#\	16e/
.	16f#/JJ
4E\	16g#/LL
.	16a/J
.	8g#/
8A\	8cc#/J
=13	=13
16B\LL	4b/
16A\	.
16G#\	.
16F#\	.
16E\	8g#/
16D\JJ	.
16C#/LL	4e/
16BB/	.
16AA/	.
16GG#/	.
16FF#/	8a/
16EE/JJ	.
=14	=14
16E\LL	16b/LL
16F#\J	16a/
8E\	16g#/
.	16f#/
16E\L	16e/
16F#\JJ	16d/JJ
8E\L	16c#/LL
.	16B/
16F#\L	16A</
16E\J	16G#</
8F#\J	16F#</
.	16E</JJ
!!LO:PB:g=original
=15	=15
16G#\LL	16e/LL
16A\	16f#/J
16G#\	8e/
16F#\	.
16E\	16e/L
16D\JJ	16f#/JJ
16C#/LL	8e/L
16BB/	.
16AA/	16f#/L
16GG#/	16e/J
16FF#/	8f#/J
16EE/JJ	.
=16	=16
16EE/LL	16g#/LL
16FF#/J	16a/
8EE/	16g#/
.	16f#/
16EE/L	16e/
16FF#/JJ	16d/JJ
4FF#/	16c#/LL
.	16B/
.	16A</
.	16G#</
8AA/	16F#</
.	16E</JJ
=17	=17
*	*8va
8.C#\L	16e</LL
.	16f#</J
.	8e</
16D\K	.
8C#\J	16e</L
.	16f#</JJ
8F#\L	4f#</
8E\	.
8D\J	8a</
*	*X8va
=18	=18
16c#\LL	8.cc#\L
16d\	.
16c#\	.
16B\	16dd\K
16A\	8cc#\J
16G#\JJ	.
4F#\	8ff#\L
.	8ee\
8G#\	8dd\J
=19	=19
8.A\L	16cc#/LL
.	16dd/
.	16cc#/
16G#\K	16b/
8A\J	16a/
.	16g#/JJ
8B\L	4f#/
8c#\	.
8B\J	8g#/
=20	=20
16F#\LL	8.a/L
16G#\	.
16F#\	.
16E\	16g#/K
16D\	8a/J
16C#\JJ	.
4BB/	8b/L
.	8cc#/
8D\	8b/J
=21	=21
4D\	16f#/LL
.	16g#/
.	16f#/
.	16e/
8F#\	16d/
.	16c#/JJ
16G#\LL	4B/
16F#\	.
16G#\	.
16A\	.
16G#\	8d/
16F#\JJ	.
!!LO:LB:g=original
=22	=22
16B\LL	4d/
16c#\	.
16B\	.
16c#\	.
16d\	8f#/
16c#\JJ	.
8B\L	16g#/LL
.	16f#/
8e\	16g#/
.	16a/
8c#\J	16g#/
.	16f#/JJ
=23	=23
4d\	16b\LL
.	16cc#\
.	16b\
.	16cc#\
8B\	16dd\
.	16cc#\JJ
16G#\LL	8b\L
16F#\	.
16E\	8ee\
16F#\	.
16A\	8cc#\J
16E\JJ	.
=24	=24
16G#\LL	4dd\
16A\	.
16G#\	.
16F#\	.
16E\	8b\
16F#\JJ	.
4B\	16g#/LL
.	16f#/
.	16e/
.	16f#/
8c#\	16a/
.	16e/JJ
=25	=25
!	!LO:TX:t=P:problem:w tym takcie niezrozumiałe poprawki ołówkiem
4B\	16g#/LL
.	16a/
.	16g#/
.	16f#/
8G#\	16e/
.	16f#/JJ
4G#\	4b\
8E\	8cc#\
=26	=26
*2\right	*
2.A;\	2.a;/
=27||	=27||
*k[]	*k[]
*M3/4	*M3/4
*	*^
4E\	8r	2.r
.	8cc/	.
4E\	8cc/L	.
.	8b/J	.
4F\	4a/	.
=28!|:	=28!|:	=28!|:
*>D	*>D	*D
2G\	8g/L	4e\
.	8a/	.
.	8b/	4e\
.	8cc/	.
4F\	8b/	4f\
.	8a/J	.
!!LO:LB:g=original
=29	=29	=29
*	*	*2\right
4E\	8g/L	2g\
.	8a/	.
4E\	8b/	.
.	8cc/J	.
4E\	4dd/	4f\
=30	=30	=30
2C\	8ee/L	4e\
.	8ff/	.
.	8gg/	4e\
.	8aa/	.
4BB\	8gg/	4d\
.	8ff/J	.
=31	=31	=31
4C\	8ee/L	2c\
.	8ff/	.
4C\	8gg/	.
.	8aa/	.
4D\	8gg/	4B\
.	8ff/J	.
=32	=32	=32
2E\	8ee/L	4c\
.	8dd/	.
.	8cc/	4c\
.	8b/	.
4F#X\	8a/	4B\
.	8dd/J	.
=33	=33	=33
4G\	8g/L	2e\
.	8a/	.
4G\	8b/	.
.	8cc/	.
4A\	8dd/	4f#X\
.	8cc/J	.
=34	=34	=34
2G\	8b/L	4g\
.	8cc/	.
.	8b/	4g\
.	8cc/J	.
4Fn\	4dd/	4a\
=35	=35	=35
!!LO:TX:a:t=I
*>D1	*>D1	*>D1
4E\	8gg/L	2g\
.	8ff/	.
4E\	8ee/	.
.	8cc/	.
4F\	8b/	4fn\
.	8a/J	.
=36:|!	=36:|!	=36:|!
!!LO:TX:a:t=II
*>D2	*>D2	*>D2
4G\	8b/L	2g\
.	8cc/	.
4G\	8dd/	.
.	8ee/J	.
4Fn\	4dd/	4a\
!!LO:PB:g=original
=37	=37	=37
*>E	*>E	*>E
2E\	8gg/L	4g\
.	8ff/	.
.	8ee/	4g\
.	8cc/	.
4D\	8a/	4f\
.	8b/J	.
=38	=38	=38
4C\	8cc/L	2e\
.	8dd/	.
4C\	8ee/	.
.	8ff/J	.
[<4BB\	4gg/	4d\
=39	=39	=39
4BB\]	4gg/	4c\
2AA/	8aa/L	4c\
.	8gg/J	.
.	4gg/	[4B\
=40	=40	=40
4D\	8gg/L	4B\]
.	8ff/J	.
4D\	4ff/	2A\
4C\	4ee/	.
=41	=41	=41
2BB\	8dd/L	4d\
.	8ee/J	.
.	8ff/L	4d\
.	8gg/J	.
4AA\	4aa/	4c\
=42	=42	=42
4GG/	8bb\L	2B\
.	8aa\	.
4GG/	8gg\	.
.	8dd\J	.
[4FF/	4dd/	4A\
*	*v	*v
=43	=43
*^	*
4G/	4FF/]	8dd/L
.	.	8dd/
4G/	2EE/	8cc/
.	.	8b/
[<4F/	.	8cc/
.	.	8dd/J
=44	=44	=44
4F/]	4AA/	8cc/L
.	.	8b/
2E/	4AA/	8cc/
.	.	8dd/J
.	4GG/	4ee/
=45	=45	=45
4A/	2FF/	8dd/L
.	.	8ee/
4A/	.	8ff/
.	.	8dd/
4G/	4EE/	8cc/
.	.	8b/J
!!LO:LB:g=original
=46	=46	=46
2F/	4AA\	8cc/L
.	.	8b/J
.	4AA\	4a/
4E/	4GG\	8b/L
.	.	8cc/J
=47	=47	=47
4A/	2FF\	8dd/L
.	.	8ee/J
4A/	.	4ff/
4G/	4EE\	4gg/
=48	=48	=48
2F/	4AA\	8aa\L
.	.	8gg\
.	4BB\	8ff\
.	.	8ee\
4E/	4C\	8dd\
.	.	8cc\J
=49	=49	=49
4A/	2F\	8b/L
.	.	8a/
4B/	.	8g/
.	.	8g/
4c/	4E\	8g/
.	.	8cc/J
*v	*v	*
=50	=50
*	*^
4D\	8dd/L	2f\
.	8ee/	.
4D\	8ff/	.
.	8ee/	.
4G\	8cc/	4e\
.	8b/J	.
=51	=51	=51
2G\	8b/L	4d\
.	8cc/	.
.	8dd/	4d\
.	8cc/	.
4F\	8dd/	4g\
.	8gg/J	.
=52	=52	=52
4E\	8gg/L	2g\
.	8ff/J	.
4E\	4ee/	.
4F\	4dd/	4f\
=53	=53	=53
2G\	8b/L	4e\
.	8a/	.
.	8b/	4e\
.	8cc/J	.
4F\	4dd/	4f\
=54	=54	=54
4E\	8cc/L	2g\
.	8dd/J	.
4E\	4ee/	.
4D\	8ff/L	4f\
.	8dd/J	.
!!LO:LB:g=original
=55	=55	=55
2C/	8gg/L	4e\
.	8ff/	.
.	8ee/	4e\
.	8ff/	.
4BB/	8gg/	4d\
.	8dd/J	.
=56	=56	=56
4C/	8ee/L	2c\
.	8ff/J	.
4C/	4gg/	.
4D\	4dd/	4B\
=57	=57	=57
2E\	8cc/L	4c\
.	8dd/	.
.	8cc/	4c\
.	8b/	.
4F\	8a/	4d\
.	8g/J	.
=58	=58	=58
4G\	8g/L	2e\
.	8a/	.
4G\	8b/	.
.	8cc/	.
4G\	8dd/	4f\
.	8gg/J	.
=59	=59	=59
4GG/	8gg/L	4g\
.	8aa/	.
4D\	8gg/	4g\
.	8ff/	.
4BB/	8ee/	4g\
.	8dd/J	.
=60	=60	=60
*	*	*2\left
2.C;<\	2.cc;/	2.cc\
*	*v	*v
==	==
*-	*-
!!!system-decoration: {(s1,s2)}
!!!RDF**kern: < = below
!!!ENC: Anastazja Marusiak
!!!END: 2021-10-22
!!!ENC: Marta Lawrence
!!!END: 2021-10-23
